X: 67
T:Debka La'adama
C:David Zehavi 1964
O:Israel 
I:choreographer Y. Levy 1959
F: http://www.youtube.com/watch?v=3lKczT7obKQ
Q:1/4=96
L:1/8
M:2/4
K:Dm
  "Gm"d2 G2     | "Dm"A2 "Gm"BA |G4-                  |G4               |\
|:"Dm"FG "Gm"GG | BG GG         | "Dm"A G/A/ F/G/ A   | "Gm"B/A/ GG z   :|
  Gd dd         | "Dm"fd "Gm"dd | "C"e d/e/c/d/ e     | "Dm"f/e/ d d z  |\
  "Gm"Gd dd     | "Dm"fd "Gm"dd | "C"c d/c/"Cm"_e/d/ c| "Gm"B/A/G G z   |
  g2 g2         | g2 g2         | "C"cd "Cm"_e/d/c    | "C"cd "Cm"_e/d/c|\
  "Dm"f2 "Dm"f2 | "C"e2 e2      | "Gm"de "C"cd        | "Gm"d4          |
  g2 g2         | g2 g2         | "C"cd "Cm"_e/d/c    | "C"cd "Cm"_e/d/c|\
  "Gm"d2 G2     | "Dm"A2 "Gm"BA | G4                  |



